fs/image_arrow_forward_24_filled.svg

<svg viewBox="0 0 24 24" fill="none" xmlns="http://www.w3.org/2000/svg" height="1em" width="1em">
  <path d="M12 6.5C12 9.53757 9.53757 12 6.5 12C3.46243 12 1 9.53757 1 6.5C1 3.46243 3.46243 1 6.5 1C9.53757 1 12 3.46243 12 6.5ZM5.35355 4.35355C5.54882 4.15829 5.54882 3.84171 5.35355 3.64645C5.15829 3.45118 4.84171 3.45118 4.64645 3.64645L3.14645 5.14645C2.95118 5.34171 2.95118 5.65829 3.14645 5.85355L4.64645 7.35355C4.84171 7.54882 5.15829 7.54882 5.35355 7.35355C5.54882 7.15829 5.54882 6.84171 5.35355 6.64645L4.70711 6H6.75C7.99264 6 9 7.00736 9 8.25V8.5C9 8.77614 9.22386 9 9.5 9C9.77614 9 10 8.77614 10 8.5V8.25C10 6.45507 8.54493 5 6.75 5H4.70711L5.35355 4.35355ZM15.7521 7.5C16.1675 7.5 16.5042 7.83673 16.5042 8.25212C16.5042 8.6675 16.1675 9.00423 15.7521 9.00423C15.3367 9.00423 15 8.6675 15 8.25212C15 7.83673 15.3367 7.5 15.7521 7.5ZM13 6.5C13 10.0899 10.0899 13 6.5 13C5.21136 13 4.0103 12.625 3 11.9782V17.75C3 18.3771 3.17758 18.9626 3.4852 19.4592L10.4238 12.6475L10.5592 12.5248C11.3941 11.8273 12.615 11.8293 13.4477 12.5306L13.5762 12.6475L20.5148 19.4592C20.8224 18.9626 21 18.3771 21 17.75V6.25C21 4.45507 19.5449 3 17.75 3H11.9782C12.625 4.0103 13 5.21136 13 6.5ZM15.7521 6C16.9959 6 18.0042 7.00831 18.0042 8.25212C18.0042 9.49592 16.9959 10.5042 15.7521 10.5042C14.5083 10.5042 13.5 9.49592 13.5 8.25212C13.5 7.00831 14.5083 6 15.7521 6ZM11.4746 13.7179L11.5582 13.6469C11.8174 13.4576 12.1705 13.4552 12.432 13.6399L12.5254 13.7179L19.4531 20.5186C18.9578 20.8239 18.3745 21 17.75 21H6.25C5.62551 21 5.04216 20.8239 4.54692 20.5186L11.4746 13.7179Z" fill="#212121"/>
</svg>

<svg viewBox="0 0 24 24" fill="none" xmlns="http://www.w3.org/2000/svg" height="1em" width="1em">
  <path d="M12 6.5a5.5 5.5 0 1 1-11 0 5.5 5.5 0 0 1 11 0ZM5.354 4.354a.5.5 0 1 0-.708-.708l-1.5 1.5a.5.5 0 0 0 0 .708l1.5 1.5a.5.5 0 1 0 .708-.708L4.707 6H6.75A2.25 2.25 0 0 1 9 8.25v.25a.5.5 0 0 0 1 0v-.25A3.25 3.25 0 0 0 6.75 5H4.707l.647-.646ZM15.752 7.5a.752.752 0 1 1 0 1.504.752.752 0 0 1 0-1.504ZM13 6.5a6.5 6.5 0 0 1-10 5.478v5.772c0 .627.178 1.213.485 1.71l6.939-6.813.135-.122a2.25 2.25 0 0 1 2.889.006l.128.117 6.939 6.811A3.235 3.235 0 0 0 21 17.75V6.25A3.25 3.25 0 0 0 17.75 3h-5.772A6.47 6.47 0 0 1 13 6.5Zm2.752-.5a2.252 2.252 0 1 1 0 4.504 2.252 2.252 0 0 1 0-4.504Zm-4.277 7.718.083-.071a.75.75 0 0 1 .874-.007l.093.078 6.928 6.8A3.235 3.235 0 0 1 17.75 21H6.25a3.235 3.235 0 0 1-1.703-.481l6.928-6.801Z" fill="#212121"/>
</svg>
